X: 17508
T: Hills Of Glenshee, The
R: waltz
M: 3/4
K: Edorian
B,2|E4 FE|D2E3F|G2B,3^C|D2E4-|E4E2|
G2A2dB-|B4AF|E2D2FA-|A6-|A4A2|
B2d2^c2|B4AF|E2D3B,|DE-E4|z4E2|
G2AAB2-|B6-|B4B,2|E3DF2|E6|

